src/assets/svg/auth-midlogo.svg

<svg width="58" height="83" viewBox="0 0 58 83" fill="none" xmlns="http://www.w3.org/2000/svg">
<g opacity="0.7">
<path fill-rule="evenodd" clip-rule="evenodd" d="M36.0403 12.0779C36.0332 12.0695 36.0236 12.1031 36.0153 12.1151C36.0379 12.0071 36.0153 12.0827 36.0546 11.9806C36.0605 11.965 36.0819 11.9158 36.0891 11.9002C36.1259 11.8269 36.1533 11.7945 36.1985 11.738L36.0403 12.0791V12.0779ZM1.67328 5.96036C1.8493 6.09246 2.14663 6.20775 2.3738 6.33745C2.92446 6.6521 3.82597 7.34744 4.3029 7.78217C6.7446 10.0075 8.75695 13.5779 10.6195 16.4397C12.6259 19.5201 14.5645 22.1429 17.558 23.9503C18.1146 24.2854 19.8713 25.0756 20.6122 25.1212C20.6075 23.4639 21.013 21.5268 21.5138 19.9848C21.9122 18.7599 22.4284 17.6598 22.9897 16.537C23.1455 16.2259 23.5154 15.7275 23.5392 15.3901C22.9124 14.7512 19.3301 12.2304 18.6546 11.8245C17.2571 10.9839 16.2843 10.2897 14.8226 9.53313L13.4929 8.82939C13.9591 8.89064 15.8573 9.67965 16.3294 9.90422C18.8675 11.1088 20.5552 12.0335 22.8803 13.5875C23.243 13.8301 23.8044 14.2936 24.1386 14.4474C24.3563 14.2588 25.0306 13.1515 25.3494 12.7144C26.6624 10.9118 28.0384 9.38902 29.6726 7.79538C29.2718 7.25497 27.6305 6.28101 27.0323 5.93514C26.1367 5.41874 25.0972 4.99481 24.0351 4.5985C18.5939 2.57493 11.289 2.57253 5.55527 4.3331C4.73581 4.58409 2.13831 5.4908 1.6709 5.95916L1.67328 5.96036ZM36.0153 12.1151C35.9761 12.4322 35.781 12.7624 35.6549 13.0843L34.6809 15.9473C32.5841 22.2378 31.5625 30.2252 31.6409 36.9696C31.6588 38.4288 31.5363 38.2342 33.0004 37.6794C51.6765 30.5915 42.1368 15.5858 42.9135 4.66215C43.0978 2.06574 43.6651 1.47007 43.8162 0.616211C37.2796 2.49927 32.1452 6.19935 27.9552 10.9538L26.1724 13.166L24.6429 15.4717C23.1217 17.8892 21.201 22.2774 21.5827 26.4735C21.8872 29.8205 23.6641 32.9873 26.1534 34.8884C26.7445 35.3388 27.7863 36.1626 28.4262 36.4376C28.5142 36.8519 28.3037 38.7122 28.2692 39.3175C28.2287 40.0164 28.1015 41.5056 28.1907 42.1577L29.8189 41.9511C29.9128 41.5848 29.8581 40.3827 29.8653 39.8879C29.9438 34.8968 30.19 30.9722 31.1046 26.0003C31.6267 23.1553 32.2011 21.3515 33.0241 18.7371C33.3334 17.7523 35.4647 12.5403 36.0153 12.1151Z" fill="#00C700"/>
<path fill-rule="evenodd" clip-rule="evenodd" d="M53.9011 50.1743L30.8223 65.4671V82.9702L54.1438 67.4373L53.9011 50.1743Z" fill="#00C700"/>
<path fill-rule="evenodd" clip-rule="evenodd" d="M57.543 24.6665L30.8223 42.8873V60.3776L57.7878 41.9169L57.543 24.6665Z" fill="#00C700"/>
<path fill-rule="evenodd" clip-rule="evenodd" d="M4.10155 50.1743L27.178 65.4671V82.9702L3.85645 67.4373L4.10155 50.1743Z" fill="#00C700"/>
<path fill-rule="evenodd" clip-rule="evenodd" d="M0.455227 24.6665L27.1784 42.8873V60.3776L0.212891 41.9169L0.455227 24.6665Z" fill="#00C700"/>
</g>
</svg>

<svg xmlns="http://www.w3.org/2000/svg" width="58" height="83" fill="none"><path fill="#00C700" fill-rule="evenodd" d="M36.04 12.078c-.007-.008-.016.025-.025.037.023-.108 0-.032.04-.134a.7.7 0 0 1 .144-.243zM1.673 5.96c.176.132.474.248.7.377.551.315 1.453 1.01 1.93 1.445 2.442 2.226 4.454 5.796 6.317 8.658 2.006 3.08 3.945 5.703 6.938 7.51.557.335 2.313 1.126 3.054 1.171-.004-1.657.401-3.594.902-5.136.398-1.225.914-2.325 1.476-3.448.155-.311.525-.81.55-1.147-.628-.639-4.21-3.16-4.885-3.565-1.398-.841-2.37-1.535-3.832-2.292l-1.33-.704c.466.062 2.364.85 2.836 1.075 2.538 1.205 4.226 2.13 6.551 3.684.363.242.924.706 1.259.86.217-.19.892-1.296 1.21-1.734 1.313-1.802 2.69-3.325 4.324-4.919-.401-.54-2.042-1.514-2.64-1.86-.896-.516-1.936-.94-2.998-1.336-5.441-2.024-12.746-2.026-18.48-.266-.82.251-3.417 1.158-3.884 1.626zm34.342 6.155c-.039.317-.234.647-.36.97l-.974 2.862c-2.097 6.29-3.118 14.278-3.04 21.023.018 1.459-.105 1.264 1.36.71 18.676-7.088 9.136-22.094 9.913-33.018.184-2.596.751-3.192.902-4.046C37.28 2.5 32.146 6.2 27.956 10.954l-1.784 2.212-1.53 2.306c-1.52 2.417-3.441 6.805-3.06 11.002.305 3.346 2.082 6.513 4.571 8.414.591.45 1.633 1.275 2.273 1.55.088.414-.122 2.274-.157 2.88-.04.698-.167 2.188-.078 2.84l1.628-.207c.094-.366.04-1.568.046-2.063.079-4.991.325-8.916 1.24-13.888.522-2.845 1.096-4.648 1.92-7.263.308-.985 2.44-6.197 2.99-6.622m17.886 38.059L30.822 65.467V82.97l23.322-15.533zm3.642-25.507-26.72 18.22v17.49l26.965-18.46zM4.102 50.174l23.076 15.293V82.97L3.856 67.437zM.455 24.667l26.723 18.22v17.49L.213 41.918z" clip-rule="evenodd" opacity=".7"/></svg>
